img/chocolate.svg

<svg fill="none" height="32" viewBox="0 0 32 32" width="32" xmlns="http://www.w3.org/2000/svg"><path d="m13.822 2.41301 7.527 7.536.08-.08c.1577-.15432.3688-.24181.5894-.24424.2206-.00242.4336.08042.5946.23124l.006.006.867.86699c.305.305.315.77.083 1.094l-.004.007-.143.192 6.16 6.16c.55.55.55 1.43 0 1.98l-9.43 9.43c-.55.55-1.43.55-1.98 0l-4.447-4.447c-.0738.0931-.1666.1695-.2721.2242s-.2213.0864-.34.0931c-.1186.0067-.2373-.0118-.3483-.0542-.111-.0425-.2117-.1079-.2956-.1921l-2.59999-2.6c-.15432-.1576-.24181-.3688-.24424-.5894-.00242-.2206.08042-.4336.23124-.5946l.006-.007.077-.076-7.527-7.527c-.55-.55-.55-1.43 0-1.98l9.42999-9.42999c.55-.55 1.43-.55 1.98 0zm6.582 8.47999-1.756-1.75499c-.0552-.05691-.1212-.10216-.1942-.13306s-.1515-.04682-.2308-.04682-.1577.01592-.2307.04682-.1391.07615-.1943.13306l-3.58 3.57999c-.0567.0563-.1017.1233-.1324.1971-.0308.0738-.0466.153-.0466.2329s.0158.1591.0466.2329c.0307.0738.0757.1408.1324.1971l1.749 1.749.61-.61-1.565-1.565 3.21-3.21999 1.569 1.57399zm-5.076 5.072-1.754-1.754c-.0552-.0569-.1212-.1022-.1942-.1331s-.1515-.0468-.2308-.0468-.1577.0159-.2307.0468-.1391.0762-.1943.1331l-3.57999 3.58-.005.005-.005.005c-.24.23-.24.61 0 .85l1.75199 1.752.616-.616-1.56999-1.564 3.21999-3.21 1.564 1.563zm-6.50599-7.77199 3.57999 3.57999c.24.24.62.24.85-.01l3.58-3.57999c.0569-.05417.1022-.11933.1331-.19153.031-.07219.0469-.14992.0469-.22847h.01c0-.15-.06-.31-.18-.43l-3.58-3.58c-.0562-.05684-.1232-.10196-.197-.13276-.0738-.03079-.153-.04665-.233-.04665s-.1591.01586-.233.04665c-.0738.0308-.1407.07592-.197.13276l-3.57999 3.59c-.24.23-.24.61 0 .85zm-5.07 5.06999 3.58 3.58c.24.24.62.24.85 0l3.57999-3.58c.0581-.0553.1041-.1221.1351-.1961s.0463-.1537.0449-.2339h.01c0-.16-.06-.31-.18-.43l-3.57999-3.57999c-.05518-.05691-.12124-.10216-.19425-.13306-.073-.0309-.15147-.04682-.23075-.04682-.07927 0-.15774.01592-.23075.04682-.073.0309-.13906.07615-.19425.13306l-3.59 3.58999c-.24.23-.24.61 0 .85zm6.93299 8.754 2.362 2.363 9.636-13.04-.655-.655z" fill="#000"/><path d="m13.822 2.41301 7.527 7.536.08-.08c.1577-.15432.3688-.24181.5894-.24424.2206-.00242.4336.08042.5946.23124l.006.006.867.86699c.305.305.315.77.083 1.094l-.004.007-.143.192 6.16 6.16c.55.55.55 1.43 0 1.98l-9.43 9.43c-.55.55-1.43.55-1.98 0l-4.447-4.447c-.0738.0931-.1666.1695-.2721.2242s-.2213.0864-.34.0931c-.1186.0067-.2373-.0118-.3483-.0542-.111-.0425-.2117-.1079-.2956-.1921l-2.59999-2.6c-.15432-.1576-.24181-.3688-.24424-.5894-.00242-.2206.08042-.4336.23124-.5946l.006-.007.077-.076-7.527-7.527c-.55-.55-.55-1.43 0-1.98l9.42999-9.42999c.55-.55 1.43-.55 1.98 0zm6.582 8.47999-1.756-1.75499c-.0552-.05691-.1212-.10216-.1942-.13306s-.1515-.04682-.2308-.04682-.1577.01592-.2307.04682-.1391.07615-.1943.13306l-3.58 3.57999c-.0567.0563-.1017.1233-.1324.1971-.0308.0738-.0466.153-.0466.2329s.0158.1591.0466.2329c.0307.0738.0757.1408.1324.1971l1.749 1.749.61-.61-1.565-1.565 3.21-3.21999 1.569 1.57399zm-5.076 5.072-1.754-1.754c-.0552-.0569-.1212-.1022-.1942-.1331s-.1515-.0468-.2308-.0468-.1577.0159-.2307.0468-.1391.0762-.1943.1331l-3.57999 3.58-.005.005-.005.005c-.24.23-.24.61 0 .85l1.75199 1.752.616-.616-1.56999-1.564 3.21999-3.21 1.564 1.563zm-6.50599-7.77199 3.57999 3.57999c.24.24.62.24.85-.01l3.58-3.57999c.0569-.05417.1022-.11933.1331-.19153.031-.07219.0469-.14992.0469-.22847h.01c0-.15-.06-.31-.18-.43l-3.58-3.58c-.0562-.05684-.1232-.10196-.197-.13276-.0738-.03079-.153-.04665-.233-.04665s-.1591.01586-.233.04665c-.0738.0308-.1407.07592-.197.13276l-3.57999 3.59c-.24.23-.24.61 0 .85zm-5.07 5.06999 3.58 3.58c.24.24.62.24.85 0l3.57999-3.58c.0581-.0553.1041-.1221.1351-.1961s.0463-.1537.0449-.2339h.01c0-.16-.06-.31-.18-.43l-3.57999-3.57999c-.05518-.05691-.12124-.10216-.19425-.13306-.073-.0309-.15147-.04682-.23075-.04682-.07927 0-.15774.01592-.23075.04682-.073.0309-.13906.07615-.19425.13306l-3.59 3.58999c-.24.23-.24.61 0 .85zm6.93299 8.754 2.362 2.363 9.636-13.04-.655-.655z" fill="#fd9222"/></svg>

<svg width="32" height="32" viewBox="0 0 32 32" fill="none" xmlns="http://www.w3.org/2000/svg">
<path d="M13.822 2.41301L21.349 9.94901L21.429 9.86901C21.5867 9.71469 21.7978 9.6272 22.0184 9.62477C22.239 9.62235 22.452 9.70519 22.613 9.85601L22.619 9.86201L23.486 10.729C23.791 11.034 23.801 11.499 23.569 11.823L23.565 11.83L23.422 12.022L29.582 18.182C30.132 18.732 30.132 19.612 29.582 20.162L20.152 29.592C19.602 30.142 18.722 30.142 18.172 29.592L13.725 25.145C13.6512 25.2381 13.5584 25.3145 13.4529 25.3692C13.3474 25.4239 13.2316 25.4556 13.1129 25.4623C12.9943 25.469 12.8756 25.4505 12.7646 25.4081C12.6536 25.3656 12.5529 25.3002 12.469 25.216L9.86901 22.616C9.71469 22.4584 9.6272 22.2472 9.62477 22.0266C9.62235 21.806 9.70519 21.593 9.85601 21.432L9.86201 21.425L9.93901 21.349L2.41201 13.822C1.86201 13.272 1.86201 12.392 2.41201 11.842L11.842 2.41201C12.392 1.86201 13.272 1.86201 13.822 2.41201V2.41301ZM20.404 10.893L18.648 9.13801C18.5928 9.0811 18.5268 9.03585 18.4538 9.00495C18.3808 8.97405 18.3023 8.95813 18.223 8.95813C18.1437 8.95813 18.0653 8.97405 17.9923 9.00495C17.9193 9.03585 17.8532 9.0811 17.798 9.13801L14.218 12.718C14.1613 12.7743 14.1163 12.8413 14.0856 12.9151C14.0548 12.9889 14.039 13.0681 14.039 13.148C14.039 13.2279 14.0548 13.3071 14.0856 13.3809C14.1163 13.4547 14.1613 13.5217 14.218 13.578L15.967 15.327L16.577 14.717L15.012 13.152L18.222 9.93201L19.791 11.506L20.404 10.893ZM15.328 15.965L13.574 14.211C13.5188 14.1541 13.4528 14.1088 13.3798 14.0779C13.3068 14.047 13.2283 14.0311 13.149 14.0311C13.0697 14.0311 12.9913 14.047 12.9183 14.0779C12.8453 14.1088 12.7792 14.1541 12.724 14.211L9.14401 17.791L9.13901 17.796L9.13401 17.801C8.89401 18.031 8.89401 18.411 9.13401 18.651L10.886 20.403L11.502 19.787L9.93201 18.223L13.152 15.013L14.716 16.576L15.328 15.965ZM8.82201 8.19301L12.402 11.773C12.642 12.013 13.022 12.013 13.252 11.763L16.832 8.18301C16.8889 8.12884 16.9342 8.06368 16.9651 7.99148C16.9961 7.91929 17.012 7.84156 17.012 7.76301H17.022C17.022 7.61301 16.962 7.45301 16.842 7.33301L13.262 3.75301C13.2058 3.69617 13.1388 3.65105 13.065 3.62025C12.9912 3.58946 12.912 3.5736 12.832 3.5736C12.752 3.5736 12.6729 3.58946 12.599 3.62025C12.5252 3.65105 12.4583 3.69617 12.402 3.75301L8.82201 7.34301C8.58201 7.57301 8.58201 7.95301 8.82201 8.19301ZM3.75201 13.263L7.33201 16.843C7.57201 17.083 7.95201 17.083 8.18201 16.843L11.762 13.263C11.8201 13.2077 11.8661 13.1409 11.8971 13.0669C11.9281 12.9929 11.9434 12.9132 11.942 12.833H11.952C11.952 12.673 11.892 12.523 11.772 12.403L8.19201 8.82301C8.13683 8.7661 8.07077 8.72085 7.99776 8.68995C7.92476 8.65905 7.84629 8.64313 7.76701 8.64313C7.68774 8.64313 7.60927 8.65905 7.53626 8.68995C7.46326 8.72085 7.3972 8.7661 7.34201 8.82301L3.75201 12.413C3.51201 12.643 3.51201 13.023 3.75201 13.263ZM10.685 22.017L13.047 24.38L22.683 11.34L22.028 10.685L10.685 22.017Z" fill="black"/>
<path d="M13.822 2.41301L21.349 9.94901L21.429 9.86901C21.5867 9.71469 21.7978 9.6272 22.0184 9.62477C22.239 9.62235 22.452 9.70519 22.613 9.85601L22.619 9.86201L23.486 10.729C23.791 11.034 23.801 11.499 23.569 11.823L23.565 11.83L23.422 12.022L29.582 18.182C30.132 18.732 30.132 19.612 29.582 20.162L20.152 29.592C19.602 30.142 18.722 30.142 18.172 29.592L13.725 25.145C13.6512 25.2381 13.5584 25.3145 13.4529 25.3692C13.3474 25.4239 13.2316 25.4556 13.1129 25.4623C12.9943 25.469 12.8756 25.4505 12.7646 25.4081C12.6536 25.3656 12.5529 25.3002 12.469 25.216L9.86901 22.616C9.71469 22.4584 9.6272 22.2472 9.62477 22.0266C9.62235 21.806 9.70519 21.593 9.85601 21.432L9.86201 21.425L9.93901 21.349L2.41201 13.822C1.86201 13.272 1.86201 12.392 2.41201 11.842L11.842 2.41201C12.392 1.86201 13.272 1.86201 13.822 2.41201V2.41301ZM20.404 10.893L18.648 9.13801C18.5928 9.0811 18.5268 9.03585 18.4538 9.00495C18.3808 8.97405 18.3023 8.95813 18.223 8.95813C18.1437 8.95813 18.0653 8.97405 17.9923 9.00495C17.9193 9.03585 17.8532 9.0811 17.798 9.13801L14.218 12.718C14.1613 12.7743 14.1163 12.8413 14.0856 12.9151C14.0548 12.9889 14.039 13.0681 14.039 13.148C14.039 13.2279 14.0548 13.3071 14.0856 13.3809C14.1163 13.4547 14.1613 13.5217 14.218 13.578L15.967 15.327L16.577 14.717L15.012 13.152L18.222 9.93201L19.791 11.506L20.404 10.893ZM15.328 15.965L13.574 14.211C13.5188 14.1541 13.4528 14.1088 13.3798 14.0779C13.3068 14.047 13.2283 14.0311 13.149 14.0311C13.0697 14.0311 12.9913 14.047 12.9183 14.0779C12.8453 14.1088 12.7792 14.1541 12.724 14.211L9.14401 17.791L9.13901 17.796L9.13401 17.801C8.89401 18.031 8.89401 18.411 9.13401 18.651L10.886 20.403L11.502 19.787L9.93201 18.223L13.152 15.013L14.716 16.576L15.328 15.965ZM8.82201 8.19301L12.402 11.773C12.642 12.013 13.022 12.013 13.252 11.763L16.832 8.18301C16.8889 8.12884 16.9342 8.06368 16.9651 7.99148C16.9961 7.91929 17.012 7.84156 17.012 7.76301H17.022C17.022 7.61301 16.962 7.45301 16.842 7.33301L13.262 3.75301C13.2058 3.69617 13.1388 3.65105 13.065 3.62025C12.9912 3.58946 12.912 3.5736 12.832 3.5736C12.752 3.5736 12.6729 3.58946 12.599 3.62025C12.5252 3.65105 12.4583 3.69617 12.402 3.75301L8.82201 7.34301C8.58201 7.57301 8.58201 7.95301 8.82201 8.19301ZM3.75201 13.263L7.33201 16.843C7.57201 17.083 7.95201 17.083 8.18201 16.843L11.762 13.263C11.8201 13.2077 11.8661 13.1409 11.8971 13.0669C11.9281 12.9929 11.9434 12.9132 11.942 12.833H11.952C11.952 12.673 11.892 12.523 11.772 12.403L8.19201 8.82301C8.13683 8.7661 8.07077 8.72085 7.99776 8.68995C7.92476 8.65905 7.84629 8.64313 7.76701 8.64313C7.68774 8.64313 7.60927 8.65905 7.53626 8.68995C7.46326 8.72085 7.3972 8.7661 7.34201 8.82301L3.75201 12.413C3.51201 12.643 3.51201 13.023 3.75201 13.263ZM10.685 22.017L13.047 24.38L22.683 11.34L22.028 10.685L10.685 22.017Z" fill="#FD9222"/>
</svg>
